icons/src/chevron.down.svg

<?xml version="1.0" encoding="UTF-8"?>
<!--Generator: Apple Native CoreSVG 341-->
<!DOCTYPE svg
PUBLIC "-//W3C//DTD SVG 1.1//EN"
       "http://www.w3.org/Graphics/SVG/1.1/DTD/svg11.dtd">
<svg version="1.1" xmlns="http://www.w3.org/2000/svg" xmlns:xlink="http://www.w3.org/1999/xlink" viewBox="0 0 17.3242 10.4004">
 <g>
  <rect height="10.4004" opacity="0" width="17.3242" x="0" y="0"/>
  <path d="M8.48633 10.4004C8.73047 10.4004 8.97461 10.3027 9.14062 10.1172L16.6992 2.37305C16.8652 2.20703 16.9629 1.99219 16.9629 1.74805C16.9629 1.24023 16.582 0.849609 16.0742 0.849609C15.8301 0.849609 15.6055 0.947266 15.4395 1.10352L7.95898 8.75L9.00391 8.75L1.52344 1.10352C1.36719 0.947266 1.14258 0.849609 0.888672 0.849609C0.380859 0.849609 0 1.24023 0 1.74805C0 1.99219 0.0976562 2.20703 0.263672 2.38281L7.82227 10.1172C8.00781 10.3027 8.23242 10.4004 8.48633 10.4004Z" fill="white"/>
 </g>
</svg>

<!--Generator: Apple Native CoreSVG 341-->
<!DOCTYPE svg  PUBLIC '-//W3C//DTD SVG 1.1//EN'  'http://www.w3.org/Graphics/SVG/1.1/DTD/svg11.dtd'>
<svg version="1.1" viewBox="0 0 17.324 10.4" xmlns="http://www.w3.org/2000/svg">
 <rect width="17.324" height="10.4" opacity="0"/>
 <path d="m8.4863 10.4c0.24414 0 0.48828-0.0977 0.65429-0.2832l7.5586-7.7442c0.166-0.16602 0.2637-0.38086 0.2637-0.625 0-0.50782-0.3809-0.89844-0.8887-0.89844-0.2441 0-0.4687 0.097657-0.6347 0.25391l-7.4805 7.6465h1.0449l-7.4805-7.6465c-0.15625-0.15625-0.38086-0.25391-0.63477-0.25391-0.50781 0-0.88867 0.39062-0.88867 0.89844 0 0.24414 0.097656 0.45898 0.26367 0.63476l7.5586 7.7344c0.18554 0.1855 0.41015 0.2832 0.66406 0.2832z" fill="#fff"/>
</svg>
